logos/renovatebot.svg

<?xml version="1.0" encoding="UTF-8"?>
<svg width="256px" height="256px" viewBox="0 0 256 256" version="1.1" xmlns="http://www.w3.org/2000/svg" preserveAspectRatio="xMidYMid">
    <title>renovate</title>
    <g>
        <circle fill="#497C9B" cx="128" cy="128" r="128"></circle>
        <path d="M178.208444,70.8609715 L192.817444,85.4699715 C197.687444,90.3389715 197.687444,97.2959715 192.817444,102.164972 L153.861444,141.817972 C152.618319,143.085472 152.540624,145.067522 153.628359,146.424341 L161.611532,155.473446 L162.717333,154.370333 C166.891333,150.196333 173.848333,150.196333 178.022333,154.370333 L210.717333,186.370333 C214.891333,191.239333 214.891333,198.196333 210.717333,202.370333 L205.152333,207.935333 C203.065333,210.022333 200.283333,210.717333 197.500333,210.717333 C194.717333,210.717333 191.935333,210.022333 189.848333,207.935333 L157.152333,175.239333 C153.484928,171.571928 153.039818,165.756841 155.817004,161.568111 L147.600444,152.251972 C143.001444,147.636972 143.001444,140.171972 147.600444,135.556972 L186.556444,96.5999715 C187.948444,95.2089715 187.948444,92.4259715 186.556444,91.7309715 L172.643444,77.1219715 C171.291444,75.7959715 169.127444,75.7959715 167.774444,77.1219715 L161.513444,70.8609715 C166.128444,66.2619715 173.593444,66.2619715 178.208444,70.8609715 Z M170.946515,157.852836 L170.370333,157.848333 C169.674333,157.848333 168.283333,157.848333 167.587333,159.239333 L162.022333,164.109333 C160.630333,166.196333 160.630333,168.978333 162.022333,170.370333 L194.717333,203.065333 C196.379333,204.950333 199.317333,204.950333 200.978333,203.065333 L205.848333,197.500333 C207.935333,196.109333 207.935333,193.326333 205.848333,191.239333 L173.848333,159.239333 C172.663103,158.054103 171.982459,157.878773 170.946515,157.852836 L170.946515,157.852836 Z" fill="#E8FEFF"></path>
        <path d="M156.565911,72.4455556 L165.565,81.391 C168.348,84.174 168.348,89.044 165.565,92.522 L95.304,162.783 C92.522,165.565 87.652,165.565 84.87,162.783 L75.1749111,153.141556 C72.3919111,150.358556 72.3919111,145.489556 75.1749111,142.706556 L145.435911,72.4455556 C148.913911,68.9675556 153.783911,68.9675556 156.565911,72.4455556 Z" fill="#77B3B2"></path>
        <polygon fill="#77B3B2" points="107.282194 53.5447778 119.803194 41.0227778 132.325194 53.5447778 119.803194 66.0667778"></polygon>
        <polygon fill="#77B3B2" points="44.6731944 115.457778 57.1951944 102.935778 69.7161944 115.457778 57.1951944 127.979778"></polygon>
        <polygon fill="#77B3B2" points="69.0211944 90.4147778 81.5421944 77.8927778 94.0641944 90.4147778 81.5421944 102.935778"></polygon>
        <polygon fill="#73A9AE" points="94.0641944 90.4147778 106.586194 77.8927778 119.108194 90.4147778 106.586194 102.935778"></polygon>
        <polygon fill="#73A9AE" points="69.7161944 115.457778 82.2381944 102.935778 94.7601944 115.457778 82.2381944 127.979778"></polygon>
        <polygon fill="#F0F9FE" points="81.5421944 102.935778 94.0641944 90.4147778 106.586194 102.935778 94.0641944 115.457778"></polygon>
        <polygon fill="#F0F9FE" points="119.108194 65.3707778 131.629194 52.8487778 144.151194 65.3707778 131.629194 77.8927778"></polygon>
        <polygon fill="#F0F9FE" points="57.1951944 127.979778 69.7161944 115.457778 82.2381944 127.979778 69.7161944 140.501778"></polygon>
        <polygon fill="#77B3B2" points="94.0641944 65.3707778 106.586194 52.8487778 119.108194 65.3707778 106.586194 77.8927778"></polygon>
        <polygon fill="#77B3B2" points="56.4991944 77.8927778 69.0211944 66.0667778 81.5421944 77.8927778 69.0211944 90.4147778"></polygon>
        <polygon fill="#77B3B2" points="94.7601944 41.0227778 107.282194 28.5007778 119.803194 41.0227778 107.282194 53.5447778"></polygon>
        <polygon fill="#77B3B2" points="19.6291944 90.4147778 32.1511944 77.8927778 44.6731944 90.4147778 32.1511944 102.935778"></polygon>
        <polygon fill="#77B3B2" points="57.1951944 53.5447778 69.7161944 41.0227778 82.2381944 53.5447778 69.7161944 66.0667778"></polygon>
    </g>
</svg>

<svg preserveAspectRatio="xMidYMid" viewBox="0 0 256 256" xmlns="http://www.w3.org/2000/svg">
  <circle cx="128" cy="128" r="128" fill="#497C9B"/>
  <path fill="#E8FEFF" d="m178.208 70.861 14.61 14.609c4.87 4.869 4.87 11.826 0 16.695l-38.957 39.653a3.477 3.477 0 0 0-.233 4.606l7.984 9.05 1.105-1.104c4.174-4.174 11.131-4.174 15.305 0l32.695 32c4.174 4.87 4.174 11.826 0 16l-5.565 5.565c-2.087 2.087-4.869 2.782-7.652 2.782-2.783 0-5.565-.695-7.652-2.782l-32.696-32.696c-3.667-3.667-4.112-9.482-1.335-13.67l-8.217-9.317c-4.599-4.615-4.599-12.08 0-16.695L186.556 96.6c1.392-1.391 1.392-4.174 0-4.869l-13.913-14.609a3.477 3.477 0 0 0-4.869 0l-6.26-6.261c4.614-4.599 12.08-4.599 16.694 0Zm-7.261 86.992-.577-.005c-.696 0-2.087 0-2.783 1.391l-5.565 4.87c-1.392 2.087-1.392 4.87 0 6.261l32.695 32.695a4.173 4.173 0 0 0 6.261 0l4.87-5.565c2.087-1.39 2.087-4.174 0-6.26l-32-32c-1.185-1.186-1.866-1.361-2.901-1.387Z"/>
  <path fill="#77B3B2" d="m156.566 72.446 8.999 8.945c2.783 2.783 2.783 7.653 0 11.131l-70.261 70.261c-2.782 2.782-7.652 2.782-10.434 0l-9.695-9.641c-2.783-2.783-2.783-7.652 0-10.435l70.26-70.261c3.479-3.478 8.349-3.478 11.13 0Z"/>
  <path fill="#77B3B2" d="m107.282 53.545 12.521-12.522 12.522 12.522-12.522 12.522z"/>
  <path fill="#77B3B2" d="m44.673 115.458 12.522-12.522 12.521 12.522-12.52 12.522z"/>
  <path fill="#77B3B2" d="m69.021 90.415 12.521-12.522 12.522 12.522-12.522 12.52z"/>
  <path fill="#73A9AE" d="m94.064 90.415 12.522-12.522 12.522 12.522-12.522 12.52z"/>
  <path fill="#73A9AE" d="m69.716 115.458 12.522-12.522 12.522 12.522-12.522 12.522z"/>
  <path fill="#F0F9FE" d="m81.542 102.936 12.522-12.521 12.522 12.52-12.522 12.523z"/>
  <path fill="#F0F9FE" d="m119.108 65.37 12.522-12.52 12.522 12.522-12.522 12.522z"/>
  <path fill="#F0F9FE" d="m57.195 127.98 12.521-12.522 12.522 12.522-12.522 12.522z"/>
  <path fill="#77B3B2" d="m94.064 65.37 12.522-12.521 12.522 12.522-12.522 12.522z"/>
  <path fill="#77B3B2" d="m56.5 77.893 12.52-11.826 12.521 11.826-12.52 12.522z"/>
  <path fill="#77B3B2" d="M94.76 41.023 107.282 28.5l12.521 12.522-12.52 12.522z"/>
  <path fill="#77B3B2" d="m19.63 90.415 12.52-12.522 12.522 12.522-12.522 12.52z"/>
  <path fill="#77B3B2" d="m57.195 53.545 12.521-12.522 12.522 12.522-12.522 12.522z"/>
</svg>
